X: 16646
T: Hanley's Tweed
R: reel
M: 4/4
K: Adorian
|:A2eA fAeA|~B2BA G2AG|EA~A2 BA^cd|edef g2fg|
e2ag edef|g2fa gedg|eAA2 BAGA|1 BedB A2FG:|2 BedB A2AB||
|:Aaaf g2fg|egdg egdg|Aaaf g2ge|d2BG DGBA|
BAaa bagb|agef gedB|eAA2 BAGA|1 BedB A2AB:|2 BedB A2AG||

